logo_minimal.svg

<svg xmlns="http://www.w3.org/2000/svg" xml:space="preserve" fill-rule="evenodd" stroke-linecap="round" stroke-linejoin="round" stroke-miterlimit="1.5" clip-rule="evenodd" viewBox="0 0 1000 1000"><path fill="#bfbfbf" d="M31.923 33.767v826.791L228.9 959.129l413.258-78.562 196.276 97.972V151.744L642.39 53.712l-413.586 78.703L31.923 33.767Z"/><path fill="#a6a6a6" d="m228.804 132.415.096 826.714 413.258-78.562.232-826.855-413.586 78.703"/><path fill="url(#a)" d="m382.137 663.362 78.817-208.309L838.343 43.578l43.195-16.502 44.457 12.715 30.48 27.955 16.502 43.194-12.715 44.457-377.388 411.472-200.737 96.493Z"/><defs><linearGradient id="a" x1="0" x2="1" y1="0" y2="0" gradientTransform="scale(212.1599) rotate(-47.631 4.443 -.477)" gradientUnits="userSpaceOnUse"><stop offset="0"/><stop offset="1" stop-color="#fff"/></linearGradient></defs></svg>

<?xml version="1.0" encoding="UTF-8" standalone="no"?>
<!DOCTYPE svg PUBLIC "-//W3C//DTD SVG 1.1//EN" "http://www.w3.org/Graphics/SVG/1.1/DTD/svg11.dtd">
<svg width="100%" height="100%" viewBox="0 0 1000 1000" version="1.1" xmlns="http://www.w3.org/2000/svg" xmlns:xlink="http://www.w3.org/1999/xlink" xml:space="preserve" xmlns:serif="http://www.serif.com/" style="fill-rule:evenodd;clip-rule:evenodd;stroke-linecap:round;stroke-linejoin:round;stroke-miterlimit:1.5;">
    <path d="M31.923,33.767L31.923,860.558L228.9,959.129L642.158,880.567L838.434,978.539L838.434,151.744L642.39,53.712L228.804,132.415L31.923,33.767Z" style="fill:rgb(191,191,191);stroke:black;stroke-opacity:0;stroke-width:1px;"/>
    <path d="M228.804,132.415L228.9,959.129L642.158,880.567L642.39,53.712L228.804,132.415" style="fill:rgb(166,166,166);stroke:black;stroke-opacity:0;stroke-width:1px;"/>
    <path d="M382.137,663.362L460.954,455.053L838.343,43.578L881.538,27.076L925.995,39.791L956.475,67.746L972.977,110.94L960.262,155.397L582.874,566.869L382.137,663.362Z" style="fill:url(#_Linear1);stroke:black;stroke-opacity:0;stroke-width:1px;"/>
    <defs>
        <linearGradient id="_Linear1" x1="0" y1="0" x2="1" y2="0" gradientUnits="userSpaceOnUse" gradientTransform="matrix(142.976345,-156.746883,156.746883,142.976345,382.137402,663.361924)"><stop offset="0" style="stop-color:black;stop-opacity:1"/><stop offset="1" style="stop-color:white;stop-opacity:1"/></linearGradient>
    </defs>
</svg>
